X: 29
T: Acemkürdî Aranağme (Düyek)
C: ?
O: Turkey
F: http://compmusic.upf.edu/node/140
N: acemkurdi--aranagme--duyek--1--
N: makam= acemkurdi
N: form= aranagme
N: usul= duyek = 8/4
M: 8/4
L: 1/16
K: C _B   
Q: 1/4=180
%%MIDI tuningsystem comma53
z2 f2 f2 e2 e2 d2 d2 c2  | z2 f2 e2 d2 c2 B2 A2 G2  | \
w:   |   | 
z2 A2 B2 _e2 d2 c2 B2 A2  | 
w:   | 
G2 A4 G2 cB AB A4  | z2 f2 f2 e2 e2 d2 d2 c2  | \
w:   |   | 
z2 f2 e2 d2 c2 B2 A2 G2  | 
w:   | 
z2 A2 B2 _e2 d2 c2 B2 A2  | G2 A4 G2 cB AB A4  | |


